X:1
T:An nochd gur faoin mo chodal dhomh
T:Tonight sleep has forsaken me
M:C
L:1/8
R:Air
S:Morison - Highland Airs and Quicksteps, vol. 2, No. 21 (c. 1882)
Z:AK/Fiddler's Companion
K:G Mixolydian
E>G G>G A>B D>D | E>G G>G A2 B2 | dB/A/ GG Ge dd | GB/A/ Bd e3d |
d>g gg g>B de | dB {B}AG E3D | G>D E>G e>d d>e | dB B/A/G G4 ||

